X: 38387
T: Star Of Kilkenny, The
R: reel
M: 4/4
K: Eminor
BcAF G2GA|B2Ac Beed|BcAF G2ef|gfed Beed|
BcAF G2GA|B2Ac Beed|BcAF G2ef|gfe^d e4:|
g2ga gdBd|gefd Beef|gfga bgaf|gfed Beef|
g2ga gdBd|gefd Beef|gfga bgaf|gfed Bee2:|

